X: 3083
T: Bear Dance, The
R: polka
M: 2/4
K: Aminor
|"Amin"eA A2|eA A>B|"C"cc Bc|"G"d2 cd|"Amin"eA eA|eA A>B|"C"cc "G"BG|"Amin"A4:|
|:"Amin"A>c Ac|"G"BG G2|"Amin"A>c Ac|"G"d2 cd|
"Amin"ee "G"dd|"C"cc "G"BB|"Amin"A/B/c "G"BG|"Amin"A4:|

